plasma/desktoptheme/Materia/icons/view.svg

<svg xmlns="http://www.w3.org/2000/svg" width="32" height="32" version="1.1">
 <g id="view-refresh" transform="translate(-250.00021,54.000004)">
  <path style="opacity:0.001" d="m 282.00021,-38.000004 16,0 0,16 -16,0 z"/>
  <g transform="translate(281.97246,-37.000109)">
   <g transform="translate(-485.03396,-41.017475)">
    <path style="fill:#dfdfdf" d="m 499.06185,49.01758 c 0,3.31371 -2.68629,6 -6,6 -3.28006,0 -5.94034,-2.63316 -5.99414,-5.90039 a 1,1 0 0 1 -0.006,-0.09961 1,1 0 0 1 1,-1 1,1 0 0 1 1,1 c 0,2.20914 1.79086,4 4,4 2.20914,0 4,-1.79086 4,-4 0,-2.20914 -1.79086,-4 -4,-4 l 0,2 -4,-3 4,-3 0,2 c 3.31371,0 6,2.68629 6,6 z"/>
   </g>
  </g>
 </g>
 <g id="view-history">
  <rect style="opacity:0.001" width="32" height="32" x="0" y="0"/>
  <path style="opacity:0.2" d="M 16,3.0000001 C 8.2752851,3.0000001 2,9.2752829 2,17 2,24.724717 8.2752851,31.000002 16,31 23.724715,31 30.000007,24.724717 30,17 30,9.2752829 23.724715,3.0000001 16,3.0000001 Z"/>
  <path style="fill:#ff9800" d="M 16,2.0000001 C 8.2752851,2.0000001 2,8.2752829 2,16 2,23.724717 8.2752851,30.000002 16,30 23.724715,30 30.000007,23.724717 30,16 30,8.2752829 23.724715,2.0000001 16,2.0000001 Z"/>
  <path style="opacity:0.2" d="M 16.000001,5.9999999 C 9.9305795,5.9999999 5,10.930579 5,16.999999 5,23.06942 9.9305795,28.000001 16.000001,28 22.069421,28 27.000004,23.06942 27,16.999999 27,10.930579 22.069421,5.9999999 16.000001,5.9999999 Z"/>
  <path style="fill:#ffffff" d="M 16.000001,4.9999999 C 9.9305795,4.9999999 5,9.930579 5,15.999999 5,22.06942 9.9305795,27.000001 16.000001,27 22.069421,27 27.000004,22.06942 27,15.999999 27,9.930579 22.069421,4.9999999 16.000001,4.9999999 Z"/>
  <path style="fill:#ff4747" d="m 16.238281,15.742188 -0.476562,0.515624 8.074219,7.451172 c 0.163519,-0.166191 0.317921,-0.341324 0.470703,-0.517578 z"/>
  <path style="opacity:0.1" d="m 15.990234,16.300786 a 0.69999999,0.69999999 0 0 0 -0.3125,0.07813 l -8.2988278,4.298828 a 0.69999999,0.69999999 0 0 0 -0.3007812,0.94336 0.69999999,0.69999999 0 0 0 0.9433594,0.300781 l 8.3007816,-4.300781 a 0.69999999,0.69999999 0 0 0 0.298828,-0.94336 0.69999999,0.69999999 0 0 0 -0.63086,-0.376953 z"/>
  <path style="fill:none;stroke:#4f4f4f;stroke-width:1.4;stroke-linecap:round;stroke-linejoin:round" d="M 7.7,20.3 16,16"/>
  <path style="opacity:0.1" d="m 19.976562,9.0000046 a 1.05,1.05 0 0 0 -0.939453,0.53125 l -3.949218,6.9492194 a 1.05,1.05 0 0 0 0.392578,1.43164 1.05,1.05 0 0 0 1.43164,-0.392578 l 3.951172,-6.951172 A 1.05,1.05 0 0 0 20.46875,9.1367234 1.05,1.05 0 0 0 19.976562,9.0000046 Z"/>
  <path style="fill:none;stroke:#4f4f4f;stroke-width:2.1;stroke-linecap:round;stroke-linejoin:round" d="M 16,16 19.95,9.05"/>
  <path style="opacity:0.1" d="m 16,15 c -1.10353,0 -2,0.89647 -2,2 0,1.10353 0.89647,2 2,2 1.10353,0 2,-0.89647 2,-2 0,-1.10353 -0.89647,-2 -2,-2 z"/>
  <path style="fill:#4f4f4f" d="m 16,14 c -1.10353,0 -2,0.89647 -2,2 0,1.10353 0.89647,2 2,2 1.10353,0 2,-0.89647 2,-2 0,-1.10353 -0.89647,-2 -2,-2 z"/>
  <path style="opacity:0.2;fill:#ffffff" d="M 16,2 C 8.2752851,2 2,8.2752829 2,16 2,16.168848 2.019445,16.332587 2.025391,16.5 2.2914716,9.0083654 8.4441333,3 16,3 23.555867,3 29.708528,9.0083654 29.974609,16.5 29.980555,16.332587 30,16.168848 30,16 30,8.2752829 23.724715,2 16,2 Z"/>
  <path style="fill:#ffffff" d="m 16,14.5 c -0.827647,0 -1.5,0.672353 -1.5,1.5 0,0.827647 0.672353,1.5 1.5,1.5 0.827647,0 1.5,-0.672353 1.5,-1.5 0,-0.827647 -0.672353,-1.5 -1.5,-1.5 z"/>
 </g>
</svg>

<?xml version="1.0" encoding="UTF-8"?>
<svg width="32" height="32" version="1.1" xmlns="http://www.w3.org/2000/svg">
 <g id="view-refresh" transform="translate(-250 54)">
  <path d="m282-38h16v16h-16z" opacity=".001"/>
  <g transform="translate(281.97 -37)">
   <g transform="translate(-485.03 -41.017)">
    <path d="m499.06 49.018c0 3.3137-2.6863 6-6 6-3.2801 0-5.9403-2.6332-5.9941-5.9004a1 1 0 0 1-6e-3 -0.09961 1 1 0 0 1 1-1 1 1 0 0 1 1 1c0 2.2091 1.7909 4 4 4s4-1.7909 4-4-1.7909-4-4-4v2l-4-3 4-3v2c3.3137 0 6 2.6863 6 6z" fill="#dfdfdf"/>
   </g>
  </g>
 </g>
 <g id="view-history">
  <rect width="32" height="32" opacity=".001"/>
  <path d="m16 3c-7.7247 0-14 6.2753-14 14 0 7.7247 6.2753 14 14 14 7.7247 0 14-6.2753 14-14 0-7.7247-6.2753-14-14-14z" opacity=".2"/>
  <path d="m16 2c-7.7247 0-14 6.2753-14 14 0 7.7247 6.2753 14 14 14 7.7247 0 14-6.2753 14-14 0-7.7247-6.2753-14-14-14z" fill="#ff9800"/>
  <path d="m16 6c-6.0694 0-11 4.9306-11 11 0 6.0694 4.9306 11 11 11 6.0694 0 11-4.9306 11-11 0-6.0694-4.9306-11-11-11z" opacity=".2"/>
  <path d="m16 5c-6.0694 0-11 4.9306-11 11 0 6.0694 4.9306 11 11 11 6.0694 0 11-4.9306 11-11 0-6.0694-4.9306-11-11-11z" fill="#fff"/>
  <path d="m16.238 15.742-0.47656 0.51562 8.0742 7.4512c0.16352-0.16619 0.31792-0.34132 0.4707-0.51758z" fill="#ff4747"/>
  <path d="m15.99 16.301a0.7 0.7 0 0 0-0.3125 0.07813l-8.2988 4.2988a0.7 0.7 0 0 0-0.30078 0.94336 0.7 0.7 0 0 0 0.94336 0.30078l8.3008-4.3008a0.7 0.7 0 0 0 0.29883-0.94336 0.7 0.7 0 0 0-0.63086-0.37695z" opacity=".1"/>
  <path d="M 7.7,20.3 16,16" fill="none" stroke="#4f4f4f" stroke-linecap="round" stroke-linejoin="round" stroke-width="1.4"/>
  <path d="m19.977 9a1.05 1.05 0 0 0-0.93945 0.53125l-3.9492 6.9492a1.05 1.05 0 0 0 0.39258 1.4316 1.05 1.05 0 0 0 1.4316-0.39258l3.9512-6.9512a1.05 1.05 0 0 0-0.39453-1.4316 1.05 1.05 0 0 0-0.49219-0.13672z" opacity=".1"/>
  <path d="m16 16 3.95-6.95" fill="none" stroke="#4f4f4f" stroke-linecap="round" stroke-linejoin="round" stroke-width="2.1"/>
  <path d="m16 15c-1.1035 0-2 0.89647-2 2s0.89647 2 2 2 2-0.89647 2-2-0.89647-2-2-2z" opacity=".1"/>
  <path d="m16 14c-1.1035 0-2 0.89647-2 2s0.89647 2 2 2 2-0.89647 2-2-0.89647-2-2-2z" fill="#4f4f4f"/>
  <path d="m16 2c-7.7247 0-14 6.2753-14 14 0 0.16885 0.019445 0.33259 0.025391 0.5 0.26608-7.4916 6.4187-13.5 13.975-13.5 7.5559 0 13.709 6.0084 13.975 13.5 0.005946-0.16741 0.025391-0.33115 0.025391-0.5 0-7.7247-6.2753-14-14-14z" fill="#fff" opacity=".2"/>
  <path d="m16 14.5c-0.82765 0-1.5 0.67235-1.5 1.5s0.67235 1.5 1.5 1.5 1.5-0.67235 1.5-1.5-0.67235-1.5-1.5-1.5z" fill="#fff"/>
 </g>
</svg>
